icons/info.svg

<?xml version="1.0" encoding="UTF-8" standalone="no"?>
<svg
   xmlns:dc="http://purl.org/dc/elements/1.1/"
   xmlns:cc="http://creativecommons.org/ns#"
   xmlns:rdf="http://www.w3.org/1999/02/22-rdf-syntax-ns#"
   xmlns:svg="http://www.w3.org/2000/svg"
   xmlns="http://www.w3.org/2000/svg"
   xmlns:sodipodi="http://sodipodi.sourceforge.net/DTD/sodipodi-0.dtd"
   xmlns:inkscape="http://www.inkscape.org/namespaces/inkscape"
   width="2048"
   height="2048"
   viewBox="0 0 2048 2048"
   id="svg2"
   version="1.1"
   inkscape:version="0.91pre3 r13670"
   sodipodi:docname="info.svg">
  <metadata
     id="metadata14">
    <rdf:RDF>
      <cc:Work
         rdf:about="">
        <dc:format>image/svg+xml</dc:format>
        <dc:type
           rdf:resource="http://purl.org/dc/dcmitype/StillImage" />
      </cc:Work>
    </rdf:RDF>
  </metadata>
  <defs
     id="defs12" />
  <sodipodi:namedview
     pagecolor="#ffffff"
     bordercolor="#666666"
     borderopacity="1"
     objecttolerance="10"
     gridtolerance="10"
     guidetolerance="10"
     inkscape:pageopacity="0"
     inkscape:pageshadow="2"
     inkscape:window-width="1080"
     inkscape:window-height="661"
     id="namedview10"
     showgrid="false"
     inkscape:zoom="0.11523438"
     inkscape:cx="1024"
     inkscape:cy="1024"
     inkscape:window-x="-8"
     inkscape:window-y="-8"
     inkscape:window-maximized="1"
     inkscape:current-layer="svg2" />
  <title
     id="title4">Info</title>
  <path
     d="M 1024 0.001953125 A 1024 1024 0 0 0 0 1024.002 A 1024 1024 0 0 0 1024 2048.002 A 1024 1024 0 0 0 2048 1024.002 A 1024 1024 0 0 0 1024 0.001953125 z M 945.78125 484.19531 L 1148.9102 484.19531 L 1116.1934 676.41797 L 913.0625 676.41797 L 945.78125 484.19531 z M 904.82617 824.9043 L 1107.9551 824.9043 L 994.80273 1502.5137 L 791.67383 1502.5137 L 904.82617 824.9043 z "
     id="circle6" />
</svg>

<svg xmlns="http://www.w3.org/2000/svg" width="2048" height="2048" viewBox="0 0 2048 2048">
    <title>Info</title>
    <circle cx="20.351" cy="20.054" r="18.027" transform="translate(-132.012 -115.14) scale(56.80368)"/>
    <path d="M994.803 1502.514h-203.13l113.153-677.61h203.13l-113.153 677.61zm121.39-826.096h-203.13l32.718-192.223h203.13l-32.718 192.223z"
          fill="#fff"/>
</svg>
